packages/core/src/svgs/sweth.svg

<svg width="24" height="24" viewBox="0 0 24 24" fill="none" xmlns="http://www.w3.org/2000/svg">
<g clip-path="url(#clip0_31_19528)">
<path d="M0 0H24V24H0V0Z" fill="#F0F3FA"/>
<path d="M18.6729 13.5428L18.6558 13.5642C18.6473 13.5728 18.6387 13.5814 18.6301 13.5899L13.5815 18.6256C13.1589 19.0473 12.5863 19.284 11.9894 19.284C11.3924 19.284 10.8198 19.0473 10.3972 18.6256L9.00436 17.2371C8.97362 17.2063 8.95133 17.1682 8.93962 17.1263C8.92792 17.0845 8.9272 17.0403 8.93754 16.9981C8.94788 16.9559 8.96892 16.9171 8.99864 16.8853C9.02836 16.8536 9.06576 16.8301 9.10721 16.8171C10.388 16.4507 11.6133 15.913 12.7501 15.2185C14.9744 13.7828 16.9501 13.2256 18.6729 13.5471V13.5428ZM17.6144 9.3985C19.4786 9.98564 19.2601 11.3571 19.2858 11.8971C17.2458 10.8256 14.7901 11.2199 11.9229 13.0714C9.78007 14.4556 7.99293 15.0256 6.54864 14.7856C5.10436 14.5414 4.77864 12.7756 4.71436 12.3085C6.30007 13.1099 8.42578 12.6514 11.0958 10.9285C13.5815 9.32135 15.7501 8.81135 17.6144 9.3985ZM13.5858 5.36992L14.8929 6.68135C14.9246 6.71374 14.947 6.75405 14.9578 6.79806C14.9686 6.84208 14.9673 6.88818 14.9542 6.93155C14.9411 6.97491 14.9165 7.01395 14.8831 7.04458C14.8497 7.07521 14.8087 7.09629 14.7644 7.10564C12.8701 7.49135 11.3529 8.0485 10.2172 8.77707C8.26721 10.0371 6.60864 10.6199 5.23721 10.5342L10.3972 5.37421C10.8198 4.9526 11.3924 4.71582 11.9894 4.71582C12.5863 4.71582 13.1589 4.9526 13.5815 5.37421L13.5858 5.36992Z" fill="url(#paint0_linear_31_19528)"/>
</g>
<defs>
<linearGradient id="paint0_linear_31_19528" x1="12.0001" y1="4.71421" x2="11.8586" y2="29.2842" gradientUnits="userSpaceOnUse">
<stop stop-color="#3068EF"/>
<stop offset="1" stop-color="#1322AC"/>
</linearGradient>
<clipPath id="clip0_31_19528">
<rect width="24" height="24" fill="white"/>
</clipPath>
</defs>
</svg>

<svg xmlns="http://www.w3.org/2000/svg" width="24" height="24" fill="none" viewBox="0 0 24 24"><g clip-path="url(#a)"><path fill="#F0F3FA" d="M0 0h24v24H0z"/><path fill="url(#b)" d="m18.673 13.543-.017.021-.026.026-5.048 5.036a2.254 2.254 0 0 1-3.185 0l-1.393-1.389a.253.253 0 0 1 .103-.42 14.8 14.8 0 0 0 3.643-1.598q3.337-2.154 5.923-1.672zm-1.059-4.144c1.865.587 1.646 1.958 1.672 2.498q-3.061-1.604-7.363 1.174c-2.143 1.385-3.93 1.955-5.374 1.715-1.445-.245-1.77-2.01-1.835-2.477q2.378 1.202 6.382-1.38c2.486-1.608 4.654-2.118 6.518-1.53m-4.028-4.03 1.307 1.312a.253.253 0 0 1-.129.425q-2.842.578-4.547 1.671-2.924 1.888-4.98 1.757l5.16-5.16a2.254 2.254 0 0 1 3.185 0z"/></g><defs><linearGradient id="b" x1="12" x2="11.859" y1="4.714" y2="29.284" gradientUnits="userSpaceOnUse"><stop stop-color="#3068EF"/><stop offset="1" stop-color="#1322AC"/></linearGradient><clipPath id="a"><path fill="#fff" d="M0 0h24v24H0z"/></clipPath></defs></svg>
